images/qr-code/app-store.svg

<svg width="147" height="44" viewBox="0 0 147 44" fill="none" xmlns="http://www.w3.org/2000/svg">
<rect x="0.5" y="0.352051" width="146" height="43.296" rx="8" fill="black"/>
<path d="M38.4086 22.6924C38.4194 21.8578 38.6411 21.0394 39.0531 20.3134C39.4651 19.5875 40.0541 18.9775 40.7652 18.5404C40.3135 17.8952 39.7175 17.3643 39.0247 16.9897C38.3319 16.6152 37.5612 16.4073 36.774 16.3827C35.0948 16.2064 33.4669 17.3875 32.6111 17.3875C31.7389 17.3875 30.4214 16.4002 29.0026 16.4294C28.085 16.459 27.1906 16.7259 26.4067 17.2039C25.6229 17.682 24.9762 18.3549 24.5297 19.1572C22.5957 22.5057 24.0383 27.4267 25.8909 30.1333C26.8178 31.4587 27.9011 32.9391 29.3186 32.8866C30.7056 32.8291 31.2237 32.0021 32.898 32.0021C34.5567 32.0021 35.0427 32.8866 36.489 32.8532C37.9773 32.8291 38.9151 31.522 39.8095 30.1841C40.4754 29.2397 40.9879 28.196 41.3279 27.0916C40.4632 26.7259 39.7253 26.1137 39.2061 25.3314C38.687 24.5491 38.4097 23.6313 38.4086 22.6924Z" fill="white"/>
<path d="M35.6772 14.6027C36.4887 13.6285 36.8886 12.3763 36.7917 11.1121C35.5519 11.2423 34.4067 11.8348 33.5842 12.7717C33.182 13.2293 32.874 13.7618 32.6778 14.3385C32.4815 14.9153 32.4009 15.5251 32.4405 16.1331C33.0606 16.1394 33.6741 16.005 34.2348 15.7399C34.7954 15.4749 35.2886 15.086 35.6772 14.6027Z" fill="white"/>
<path d="M53.4414 9.80462C53.831 9.77666 54.222 9.83552 54.5861 9.97696C54.9502 10.1184 55.2784 10.3389 55.547 10.6225C55.8156 10.9061 56.0178 11.2458 56.1393 11.6171C56.2607 11.9884 56.2981 12.3819 56.249 12.7695C56.249 14.6757 55.2188 15.7715 53.4414 15.7715H51.2861V9.80462H53.4414ZM52.2129 14.9276H53.3379C53.6163 14.9443 53.8949 14.8986 54.1534 14.794C54.412 14.6894 54.6439 14.5284 54.8324 14.3229C55.0209 14.1173 55.1612 13.8723 55.2431 13.6057C55.3249 13.3391 55.3463 13.0575 55.3057 12.7816C55.3434 12.5068 55.3198 12.227 55.2367 11.9624C55.1536 11.6977 55.0129 11.4547 54.8249 11.2508C54.6368 11.0468 54.406 10.887 54.1489 10.7828C53.8918 10.6785 53.6149 10.6325 53.3379 10.6478H52.2129V14.9276Z" fill="white"/>
<path d="M57.2962 13.518C57.2679 13.2221 57.3017 12.9235 57.3956 12.6415C57.4894 12.3594 57.6412 12.1001 57.8411 11.8801C58.041 11.6601 58.2848 11.4843 58.5566 11.364C58.8285 11.2438 59.1224 11.1816 59.4197 11.1816C59.717 11.1816 60.011 11.2438 60.2828 11.364C60.5547 11.4843 60.7984 11.6601 60.9983 11.8801C61.1983 12.1001 61.35 12.3594 61.4439 12.6415C61.5377 12.9235 61.5716 13.2221 61.5432 13.518C61.5721 13.8142 61.5386 14.1132 61.4451 14.3957C61.3515 14.6783 61.1998 14.9381 60.9998 15.1585C60.7998 15.3789 60.5559 15.5551 60.2838 15.6756C60.0117 15.7961 59.7173 15.8584 59.4197 15.8584C59.1221 15.8584 58.8278 15.7961 58.5556 15.6756C58.2835 15.5551 58.0396 15.3789 57.8396 15.1585C57.6396 14.9381 57.488 14.6783 57.3944 14.3957C57.3008 14.1132 57.2673 13.8142 57.2962 13.518ZM60.6292 13.518C60.6292 12.5419 60.1907 11.9711 59.4212 11.9711C58.6487 11.9711 58.2142 12.5419 58.2142 13.518C58.2142 14.5019 58.6487 15.0683 59.4212 15.0683C60.1907 15.0683 60.6292 14.498 60.6292 13.518H60.6292Z" fill="white"/>
<path d="M67.1885 15.7715H66.2666L65.3359 12.4551H65.2656L64.3389 15.7715H63.4258L62.1846 11.2686H63.0859L63.8926 14.7046H63.959L64.8848 11.2686H65.7373L66.6631 14.7046H66.7334L67.5361 11.2686H68.4248L67.1885 15.7715Z" fill="white"/>
<path d="M69.4688 11.2686H70.3242V11.9839H70.3906C70.5033 11.727 70.6933 11.5116 70.9342 11.3678C71.175 11.224 71.4548 11.1589 71.7344 11.1817C71.9535 11.1652 72.1735 11.1982 72.3781 11.2783C72.5827 11.3584 72.7666 11.4835 72.9163 11.6444C73.066 11.8052 73.1776 11.9977 73.2428 12.2075C73.308 12.4173 73.3251 12.6391 73.293 12.8565V15.7715H72.4043V13.0796C72.4043 12.356 72.0899 11.9961 71.4326 11.9961C71.2839 11.9892 71.1354 12.0145 70.9973 12.0704C70.8592 12.1262 70.7349 12.2112 70.6328 12.3196C70.5306 12.428 70.4532 12.5572 70.4056 12.6983C70.3581 12.8394 70.3417 12.9892 70.3574 13.1372V15.7715H69.4688L69.4688 11.2686Z" fill="white"/>
<path d="M74.709 9.51074H75.5977V15.7715H74.709V9.51074Z" fill="white"/>
<path d="M76.8333 13.5181C76.805 13.2222 76.8388 12.9236 76.9327 12.6415C77.0266 12.3594 77.1784 12.1001 77.3783 11.8801C77.5783 11.6601 77.822 11.4843 78.0939 11.364C78.3658 11.2438 78.6598 11.1816 78.957 11.1816C79.2543 11.1816 79.5483 11.2438 79.8202 11.364C80.0921 11.4843 80.3358 11.6601 80.5358 11.8801C80.7357 12.1001 80.8875 12.3594 80.9814 12.6415C81.0752 12.9236 81.1091 13.2222 81.0808 13.5181C81.1096 13.8143 81.0762 14.1133 80.9825 14.3958C80.8889 14.6784 80.7372 14.9382 80.5372 15.1586C80.3372 15.379 80.0933 15.5551 79.8211 15.6757C79.549 15.7962 79.2547 15.8584 78.957 15.8584C78.6594 15.8584 78.3651 15.7962 78.0929 15.6757C77.8208 15.5551 77.5769 15.379 77.3769 15.1586C77.1769 14.9382 77.0252 14.6784 76.9316 14.3958C76.8379 14.1133 76.8045 13.8143 76.8333 13.5181ZM80.1663 13.5181C80.1663 12.542 79.7278 11.9712 78.9583 11.9712C78.1858 11.9712 77.7513 12.542 77.7513 13.5181C77.7513 14.502 78.1858 15.0684 78.9583 15.0684C79.7278 15.0684 80.1663 14.4981 80.1663 13.5181H80.1663Z" fill="white"/>
<path d="M82.0156 14.498C82.0156 13.6875 82.6191 13.2202 83.6904 13.1538L84.9102 13.0835V12.6948C84.9102 12.2192 84.5957 11.9507 83.9883 11.9507C83.4922 11.9507 83.1484 12.1328 83.0498 12.4512H82.1895C82.2803 11.6777 83.0078 11.1816 84.0293 11.1816C85.1582 11.1816 85.7949 11.7436 85.7949 12.6948V15.7715H84.9395V15.1387H84.8691C84.7264 15.3657 84.526 15.5507 84.2884 15.6749C84.0508 15.7991 83.7844 15.8581 83.5166 15.8457C83.3276 15.8653 83.1365 15.8452 82.9557 15.7865C82.775 15.7278 82.6085 15.6318 82.4671 15.5049C82.3257 15.3779 82.2125 15.2227 82.1347 15.0493C82.0569 14.8759 82.0164 14.6881 82.0156 14.498ZM84.9102 14.1133V13.7368L83.8105 13.8071C83.1904 13.8486 82.9092 14.0596 82.9092 14.4565C82.9092 14.8618 83.2607 15.0976 83.7442 15.0976C83.8858 15.112 84.0289 15.0977 84.1649 15.0556C84.3009 15.0135 84.4271 14.9445 84.5358 14.8526C84.6446 14.7608 84.7338 14.648 84.7981 14.521C84.8624 14.394 84.9005 14.2553 84.9102 14.1133Z" fill="white"/>
<path d="M86.9629 13.5181C86.9629 12.0952 87.6943 11.1939 88.832 11.1939C89.1134 11.1809 89.3927 11.2483 89.6373 11.3882C89.8818 11.5281 90.0814 11.7347 90.2129 11.9839H90.2793V9.51074H91.168V15.7715H90.3164V15.0601H90.2461C90.1045 15.3075 89.8979 15.5116 89.6486 15.6501C89.3994 15.7885 89.117 15.8562 88.832 15.8457C87.6865 15.8457 86.9629 14.9444 86.9629 13.5181ZM87.8809 13.5181C87.8809 14.4732 88.3311 15.0479 89.084 15.0479C89.833 15.0479 90.2959 14.4649 90.2959 13.522C90.2959 12.5835 89.8282 11.9922 89.084 11.9922C88.3359 11.9922 87.8809 12.5708 87.8809 13.5181H87.8809Z" fill="white"/>
<path d="M94.845 13.518C94.8167 13.2221 94.8505 12.9235 94.9444 12.6415C95.0382 12.3594 95.19 12.1001 95.3899 11.8801C95.5899 11.6601 95.8336 11.4843 96.1054 11.364C96.3773 11.2438 96.6713 11.1816 96.9685 11.1816C97.2658 11.1816 97.5598 11.2438 97.8316 11.364C98.1035 11.4843 98.3472 11.6601 98.5471 11.8801C98.7471 12.1001 98.8988 12.3594 98.9927 12.6415C99.0865 12.9235 99.1204 13.2221 99.0921 13.518C99.1209 13.8142 99.0875 14.1132 98.9939 14.3957C98.9003 14.6783 98.7486 14.9381 98.5486 15.1585C98.3486 15.3789 98.1047 15.5551 97.8326 15.6756C97.5605 15.7961 97.2662 15.8584 96.9685 15.8584C96.6709 15.8584 96.3766 15.7961 96.1045 15.6756C95.8323 15.5551 95.5884 15.3789 95.3884 15.1585C95.1885 14.9381 95.0368 14.6783 94.9432 14.3957C94.8496 14.1132 94.8162 13.8142 94.845 13.518ZM98.178 13.518C98.178 12.5419 97.7395 11.9711 96.97 11.9711C96.1975 11.9711 95.763 12.5419 95.763 13.518C95.763 14.5019 96.1976 15.0683 96.97 15.0683C97.7395 15.0683 98.178 14.498 98.178 13.518Z" fill="white"/>
<path d="M100.284 11.2686H101.14V11.9839H101.206C101.319 11.727 101.509 11.5116 101.75 11.3678C101.99 11.224 102.27 11.1589 102.55 11.1817C102.769 11.1652 102.989 11.1982 103.194 11.2783C103.398 11.3584 103.582 11.4835 103.732 11.6444C103.881 11.8052 103.993 11.9977 104.058 12.2075C104.123 12.4173 104.141 12.6391 104.108 12.8565V15.7715H103.22V13.0796C103.22 12.356 102.905 11.9961 102.248 11.9961C102.099 11.9892 101.951 12.0145 101.813 12.0704C101.675 12.1262 101.55 12.2112 101.448 12.3196C101.346 12.428 101.269 12.5572 101.221 12.6983C101.174 12.8394 101.157 12.9892 101.173 13.1372V15.7715H100.284V11.2686Z" fill="white"/>
<path d="M109.13 10.1475V11.2891H110.105V12.0376H109.13V14.353C109.13 14.8247 109.324 15.0312 109.767 15.0312C109.88 15.0309 109.993 15.024 110.105 15.0107V15.751C109.946 15.7795 109.784 15.7947 109.622 15.7964C108.634 15.7964 108.24 15.4487 108.24 14.5806V12.0376H107.525V11.289H108.24V10.1475H109.13Z" fill="white"/>
<path d="M111.32 9.51074H112.201V11.9922H112.271C112.39 11.7329 112.585 11.5163 112.831 11.3719C113.076 11.2276 113.36 11.1625 113.644 11.1856C113.862 11.1737 114.08 11.2101 114.283 11.2921C114.485 11.3742 114.667 11.4998 114.815 11.6602C114.963 11.8205 115.074 12.0116 115.14 12.2197C115.205 12.4278 115.224 12.6479 115.195 12.8643V15.7715H114.306V13.0835C114.306 12.3643 113.971 12 113.343 12C113.19 11.9875 113.036 12.0085 112.893 12.0615C112.749 12.1146 112.618 12.1984 112.51 12.3071C112.402 12.4159 112.32 12.5469 112.267 12.691C112.215 12.8352 112.195 12.9889 112.209 13.1416V15.7715H111.32L111.32 9.51074Z" fill="white"/>
<path d="M120.377 14.5557C120.256 14.9673 119.994 15.3233 119.638 15.5614C119.281 15.7996 118.852 15.9047 118.425 15.8585C118.129 15.8663 117.834 15.8095 117.561 15.6919C117.289 15.5744 117.045 15.399 116.847 15.1779C116.649 14.9567 116.502 14.6952 116.415 14.4113C116.329 14.1275 116.305 13.8282 116.345 13.5343C116.306 13.2394 116.33 12.9394 116.417 12.6548C116.503 12.3701 116.65 12.1073 116.847 11.8843C117.044 11.6612 117.286 11.483 117.558 11.3618C117.829 11.2406 118.124 11.1792 118.422 11.1817C119.674 11.1817 120.43 12.0377 120.43 13.4517V13.7618H117.251V13.8116C117.237 13.9769 117.258 14.1432 117.312 14.2999C117.366 14.4567 117.452 14.6004 117.565 14.7218C117.678 14.8433 117.815 14.9398 117.967 15.0052C118.12 15.0706 118.284 15.1034 118.45 15.1016C118.662 15.1271 118.878 15.0888 119.069 14.9916C119.259 14.8944 119.417 14.7427 119.521 14.5557L120.377 14.5557ZM117.251 13.1046H119.525C119.536 12.9534 119.516 12.8016 119.465 12.6589C119.414 12.5162 119.334 12.3857 119.229 12.2759C119.125 12.166 118.999 12.0792 118.859 12.021C118.719 11.9629 118.568 11.9346 118.417 11.9381C118.263 11.9361 118.11 11.965 117.968 12.0229C117.826 12.0809 117.696 12.1667 117.588 12.2755C117.479 12.3842 117.393 12.5135 117.335 12.6559C117.277 12.7983 117.249 12.9509 117.251 13.1046H117.251Z" fill="white"/>
<path d="M56.2031 28.1377H51.4697L50.333 31.4942H48.3281L52.8115 19.0762H54.8945L59.3779 31.4942H57.3389L56.2031 28.1377ZM51.96 26.5889H55.712L53.8623 21.1416H53.8106L51.96 26.5889Z" fill="white"/>
<path d="M69.0606 26.9677C69.0606 29.7812 67.5547 31.5888 65.2823 31.5888C64.7066 31.6189 64.1341 31.4863 63.6303 31.2062C63.1265 30.9261 62.7118 30.5097 62.4336 30.0048H62.3906V34.4892H60.5322V22.4404H62.3311V23.9463H62.3653C62.6562 23.4438 63.0779 23.0296 63.5856 22.7478C64.0932 22.4659 64.6678 22.3269 65.2481 22.3457C67.5459 22.3457 69.0606 24.1621 69.0606 26.9677ZM67.1504 26.9677C67.1504 25.1347 66.2031 23.9297 64.7578 23.9297C63.3379 23.9297 62.3828 25.1601 62.3828 26.9677C62.3828 28.792 63.3379 30.0136 64.7578 30.0136C66.2032 30.0136 67.1504 28.8174 67.1504 26.9677Z" fill="white"/>
<path d="M79.0254 26.9677C79.0254 29.7812 77.5196 31.5888 75.2471 31.5888C74.6714 31.6189 74.0989 31.4863 73.5952 31.2062C73.0914 30.9261 72.6766 30.5097 72.3985 30.0048H72.3555V34.4892H70.4971V22.4404H72.2959V23.9462H72.3301C72.621 23.4438 73.0428 23.0296 73.5504 22.7477C74.058 22.4659 74.6326 22.3269 75.2129 22.3457C77.5108 22.3457 79.0254 24.1621 79.0254 26.9677ZM77.1153 26.9677C77.1153 25.1347 76.168 23.9296 74.7227 23.9296C73.3028 23.9296 72.3477 25.1601 72.3477 26.9677C72.3477 28.792 73.3028 30.0136 74.7227 30.0136C76.168 30.0136 77.1153 28.8173 77.1153 26.9677H77.1153Z" fill="white"/>
<path d="M85.6114 28.0342C85.7491 29.2657 86.9454 30.0742 88.5801 30.0742C90.1465 30.0742 91.2735 29.2656 91.2735 28.1553C91.2735 27.1914 90.5938 26.6143 88.9844 26.2188L87.375 25.8311C85.0948 25.2803 84.0362 24.2139 84.0362 22.4834C84.0362 20.3408 85.9034 18.8691 88.5547 18.8691C91.1787 18.8691 92.9776 20.3408 93.0381 22.4834H91.1621C91.0498 21.2441 90.0254 20.4961 88.5283 20.4961C87.0313 20.4961 86.0068 21.2529 86.0068 22.3545C86.0068 23.2324 86.6611 23.749 88.2617 24.1445L89.6299 24.4804C92.1777 25.083 93.2363 26.1064 93.2363 27.9228C93.2363 30.2461 91.3857 31.7011 88.4424 31.7011C85.6885 31.7011 83.8291 30.2802 83.709 28.0341L85.6114 28.0342Z" fill="white"/>
<path d="M97.2471 20.2979V22.4404H98.9687V23.9121H97.2471V28.9033C97.2471 29.6787 97.5918 30.04 98.3486 30.04C98.553 30.0365 98.7571 30.0221 98.96 29.997V31.4599C98.6197 31.5235 98.2738 31.5523 97.9277 31.5459C96.0947 31.5459 95.3799 30.8574 95.3799 29.1015V23.9121H94.0635V22.4404H95.3799V20.2979H97.2471Z" fill="white"/>
<path d="M99.9658 26.9678C99.9658 24.1191 101.644 22.3291 104.26 22.3291C106.885 22.3291 108.555 24.1191 108.555 26.9678C108.555 29.8242 106.894 31.6064 104.26 31.6064C101.627 31.6064 99.9658 29.8242 99.9658 26.9678ZM106.661 26.9678C106.661 25.0137 105.766 23.8604 104.26 23.8604C102.754 23.8604 101.859 25.0225 101.859 26.9678C101.859 28.9297 102.754 30.0742 104.26 30.0742C105.766 30.0742 106.661 28.9297 106.661 26.9678H106.661Z" fill="white"/>
<path d="M110.087 22.4406H111.859V23.9816H111.902C112.022 23.5003 112.304 23.0749 112.701 22.777C113.097 22.4792 113.584 22.3269 114.08 22.3458C114.294 22.3451 114.508 22.3683 114.717 22.4152V24.1534C114.446 24.0708 114.164 24.0329 113.882 24.0411C113.612 24.0302 113.343 24.0778 113.093 24.1807C112.843 24.2836 112.618 24.4393 112.434 24.6372C112.25 24.8351 112.111 25.0704 112.027 25.3271C111.943 25.5838 111.915 25.8557 111.945 26.1241V31.4943H110.087L110.087 22.4406Z" fill="white"/>
<path d="M123.285 28.835C123.035 30.4785 121.435 31.6064 119.387 31.6064C116.753 31.6064 115.118 29.8418 115.118 27.0107C115.118 24.1709 116.762 22.3291 119.309 22.3291C121.813 22.3291 123.389 24.0498 123.389 26.7949V27.4316H116.994V27.5439C116.965 27.8771 117.006 28.2128 117.117 28.5286C117.227 28.8445 117.403 29.1333 117.633 29.3758C117.864 29.6184 118.143 29.8091 118.453 29.9354C118.762 30.0617 119.095 30.1207 119.43 30.1084C119.869 30.1495 120.31 30.0478 120.686 29.8184C121.063 29.5889 121.356 29.244 121.521 28.835L123.285 28.835ZM117.003 26.1328H121.529C121.546 25.8332 121.501 25.5334 121.396 25.2522C121.291 24.971 121.13 24.7144 120.921 24.4987C120.712 24.2829 120.462 24.1126 120.184 23.9984C119.907 23.8841 119.609 23.8285 119.309 23.835C119.006 23.8332 118.706 23.8913 118.426 24.006C118.146 24.1208 117.891 24.2899 117.677 24.5035C117.463 24.7171 117.293 24.9711 117.177 25.2507C117.061 25.5304 117.002 25.8302 117.003 26.1328V26.1328Z" fill="white"/>
</svg>

<svg width="147" height="44" fill="none" xmlns="http://www.w3.org/2000/svg"><rect x=".5" y=".352" width="146" height="43.296" rx="8" fill="#000"/><path d="M38.409 22.692a4.95 4.95 0 012.356-4.152 5.066 5.066 0 00-3.991-2.157c-1.68-.177-3.307 1.005-4.163 1.005-.872 0-2.19-.988-3.608-.959a5.316 5.316 0 00-4.473 2.728c-1.934 3.349-.492 8.27 1.36 10.976.928 1.326 2.011 2.806 3.429 2.754 1.387-.058 1.905-.885 3.579-.885 1.659 0 2.145.885 3.591.851 1.488-.024 2.426-1.331 3.32-2.669a10.965 10.965 0 001.519-3.092 4.782 4.782 0 01-2.92-4.4zm-2.732-8.089a4.872 4.872 0 001.115-3.49 4.957 4.957 0 00-3.208 1.659 4.634 4.634 0 00-1.144 3.361 4.1 4.1 0 003.237-1.53zm17.764-4.798a2.64 2.64 0 012.808 2.965c0 1.906-1.03 3.002-2.808 3.002h-2.155V9.805h2.155zm-1.228 5.123h1.125a1.875 1.875 0 001.968-2.146 1.881 1.881 0 00-1.968-2.134h-1.125v4.28zm5.083-1.41a2.132 2.132 0 114.247 0 2.134 2.134 0 11-4.247 0zm3.333 0c0-.976-.438-1.547-1.208-1.547-.772 0-1.207.57-1.207 1.547 0 .984.435 1.55 1.207 1.55.77 0 1.208-.57 1.208-1.55zm6.56 2.253h-.922l-.931-3.316h-.07l-.927 3.316h-.913l-1.241-4.502h.9l.808 3.436h.066l.926-3.436h.852l.926 3.436h.07l.803-3.436h.889l-1.236 4.502zm2.28-4.502h.855v.715h.067a1.348 1.348 0 011.343-.802 1.464 1.464 0 011.559 1.675v2.915h-.889V13.08c0-.724-.314-1.084-.971-1.084a1.033 1.033 0 00-1.076 1.141v2.634h-.888V11.27zm5.24-1.759h.889v6.261h-.889v-6.26zm2.124 4.008a2.133 2.133 0 114.248 0 2.132 2.132 0 01-3.704 1.64 2.133 2.133 0 01-.544-1.64zm3.333 0c0-.976-.438-1.547-1.208-1.547-.772 0-1.207.571-1.207 1.547 0 .984.435 1.55 1.207 1.55.77 0 1.208-.57 1.208-1.55zm1.85.98c0-.81.603-1.278 1.674-1.344l1.22-.07v-.39c0-.475-.314-.743-.922-.743-.496 0-.84.182-.938.5h-.86c.09-.773.818-1.27 1.84-1.27 1.128 0 1.765.563 1.765 1.514v3.076h-.856v-.632h-.07a1.515 1.515 0 01-1.352.707 1.362 1.362 0 01-1.501-1.348zm2.894-.385v-.376l-1.1.07c-.62.042-.9.253-.9.65 0 .405.35.64.834.64a1.06 1.06 0 001.166-.984zm2.053-.595c0-1.423.731-2.324 1.869-2.324a1.484 1.484 0 011.38.79h.067V9.51h.889v6.26h-.852v-.71h-.07a1.563 1.563 0 01-1.414.785c-1.145 0-1.87-.902-1.87-2.328zm.918 0c0 .955.45 1.53 1.203 1.53.749 0 1.212-.583 1.212-1.526 0-.938-.468-1.53-1.212-1.53-.748 0-1.203.579-1.203 1.526zm6.964 0a2.132 2.132 0 114.247 0 2.134 2.134 0 11-4.247 0zm3.333 0c0-.976-.438-1.547-1.208-1.547-.772 0-1.207.57-1.207 1.547 0 .984.435 1.55 1.207 1.55.77 0 1.208-.57 1.208-1.55zm2.106-2.249h.856v.715h.066a1.35 1.35 0 011.344-.802 1.467 1.467 0 011.508 1.025c.065.21.083.432.05.65v2.915h-.888V13.08c0-.724-.315-1.084-.972-1.084a1.03 1.03 0 00-1.027.702 1.04 1.04 0 00-.048.44v2.633h-.889V11.27zm8.846-1.121v1.141h.975v.749h-.975v2.315c0 .472.194.678.637.678.113 0 .226-.007.338-.02v.74a2.915 2.915 0 01-.483.045c-.988 0-1.382-.347-1.382-1.215v-2.543h-.715v-.749h.715v-1.141h.89zm2.19-.638h.881v2.482h.07a1.391 1.391 0 011.373-.806 1.489 1.489 0 011.171.474 1.488 1.488 0 01.38 1.204v2.907h-.889v-2.688c0-.719-.335-1.083-.963-1.083a1.05 1.05 0 00-1.134 1.142v2.63h-.889V9.51zm9.057 5.046a1.832 1.832 0 01-1.952 1.303 2.048 2.048 0 01-2.01-1.448 2.065 2.065 0 01-.07-.877 2.077 2.077 0 012.077-2.352c1.252 0 2.008.856 2.008 2.27v.31h-3.179v.05a1.19 1.19 0 001.199 1.29 1.082 1.082 0 001.071-.546h.856zm-3.126-1.451h2.274a1.089 1.089 0 00-.666-1.084 1.09 1.09 0 00-.442-.083 1.15 1.15 0 00-1.166 1.167zM56.203 28.138H51.47l-1.137 3.356h-2.005l4.483-12.418h2.084l4.483 12.418h-2.04l-1.135-3.356zm-4.243-1.55h3.752l-1.85-5.446h-.051l-1.851 5.447zm17.1.38c0 2.813-1.505 4.62-3.778 4.62a3.07 3.07 0 01-2.848-1.583h-.043v4.484h-1.859V22.44h1.8v1.506h.033a3.21 3.21 0 012.883-1.6c2.298 0 3.813 1.816 3.813 4.622zm-1.91 0c0-1.833-.947-3.038-2.392-3.038-1.42 0-2.375 1.23-2.375 3.038 0 1.824.955 3.046 2.375 3.046 1.445 0 2.392-1.197 2.392-3.046zm11.875 0c0 2.813-1.505 4.62-3.778 4.62a3.07 3.07 0 01-2.849-1.583h-.042v4.484h-1.859V22.44h1.799v1.506h.034a3.212 3.212 0 012.883-1.6c2.298 0 3.812 1.816 3.812 4.622zm-1.91 0c0-1.833-.947-3.038-2.392-3.038-1.42 0-2.375 1.23-2.375 3.038 0 1.824.955 3.046 2.375 3.046 1.445 0 2.392-1.197 2.392-3.046zm8.496 1.066c.138 1.232 1.334 2.04 2.97 2.04 1.566 0 2.692-.808 2.692-1.919 0-.964-.68-1.54-2.289-1.936l-1.609-.388c-2.28-.55-3.339-1.617-3.339-3.348 0-2.142 1.867-3.614 4.519-3.614 2.624 0 4.423 1.472 4.483 3.614h-1.876c-.112-1.239-1.137-1.987-2.634-1.987-1.497 0-2.521.757-2.521 1.859 0 .877.654 1.394 2.255 1.79l1.368.335c2.548.603 3.606 1.626 3.606 3.443 0 2.323-1.85 3.778-4.794 3.778-2.753 0-4.613-1.42-4.733-3.667h1.902zm11.636-7.736v2.142h1.722v1.472h-1.722v4.991c0 .776.345 1.137 1.102 1.137.204-.003.408-.018.611-.043v1.463c-.34.063-.686.092-1.032.086-1.833 0-2.548-.689-2.548-2.444v-5.19h-1.316V22.44h1.316v-2.142h1.867zm2.719 6.67c0-2.849 1.678-4.639 4.294-4.639 2.625 0 4.295 1.79 4.295 4.639 0 2.856-1.661 4.638-4.295 4.638-2.633 0-4.294-1.782-4.294-4.638zm6.695 0c0-1.954-.895-3.108-2.401-3.108-1.506 0-2.401 1.163-2.401 3.108 0 1.962.895 3.106 2.401 3.106 1.506 0 2.401-1.144 2.401-3.106zm3.426-4.528h1.772v1.542h.043a2.159 2.159 0 012.178-1.636c.214 0 .428.022.637.07v1.737a2.604 2.604 0 00-.835-.112 1.874 1.874 0 00-1.937 2.083v5.37h-1.858v-9.053zm13.198 6.395c-.25 1.643-1.85 2.771-3.898 2.771-2.634 0-4.269-1.764-4.269-4.595 0-2.84 1.644-4.682 4.191-4.682 2.504 0 4.08 1.72 4.08 4.466v.637h-6.395v.112a2.353 2.353 0 00.639 1.832 2.363 2.363 0 001.797.732 2.046 2.046 0 002.091-1.273h1.764zm-6.282-2.702h4.526a2.166 2.166 0 00-.608-1.634 2.177 2.177 0 00-1.612-.664 2.293 2.293 0 00-2.306 2.298z" fill="#fff"/></svg>
